packages/icons/svg/Outline/shopping-cart.svg

<svg width="24" height="24" viewBox="0 0 24 24" fill="none" xmlns="http://www.w3.org/2000/svg">
<g id="Icon/Outline/shopping-cart">
<path id="Mask" fill-rule="evenodd" clip-rule="evenodd" d="M16.3818 14H8.76376L7.12676 8H19.3818L16.3818 14ZM21.0828 6.948C20.7158 6.354 20.0798 6 19.3818 6H6.58176L5.96476 3.737C5.84576 3.302 5.45076 3 4.99976 3H2.99976C2.44676 3 1.99976 3.448 1.99976 4C1.99976 4.552 2.44676 5 2.99976 5H4.23576L7.03476 15.263C7.15376 15.698 7.54876 16 7.99976 16H16.9998C17.3788 16 17.7248 15.786 17.8948 15.447L21.1708 8.894C21.4838 8.269 21.4498 7.542 21.0828 6.948ZM7.49996 18C6.67196 18 5.99996 18.671 5.99996 19.5C5.99996 20.329 6.67196 21 7.49996 21C8.32796 21 8.99996 20.329 8.99996 19.5C8.99996 18.671 8.32796 18 7.49996 18ZM16 19.5C16 18.671 16.672 18 17.5 18C18.328 18 19 18.671 19 19.5C19 20.329 18.328 21 17.5 21C16.672 21 16 20.329 16 19.5Z" fill="#000000"/>
</g>
</svg>

<svg fill="none" height="24" viewBox="0 0 24 24" width="24" xmlns="http://www.w3.org/2000/svg"><path clip-rule="evenodd" d="m16.3818 14.0001h-7.61798l-1.637-6.00003h12.25498zm4.701-7.0521c-.367-.594-1.003-.948-1.701-.948h-12.79998l-.617-2.263c-.119-.435-.514-.737-.965-.737h-2c-.553 0-1 .448-1 1s.447 1 1 1h1.236l2.799 10.263c.119.435.514.737.965.737h8.99998c.379 0 .725-.214.895-.553l3.276-6.553c.313-.625.279-1.352-.088-1.946zm-13.58279 11.052c-.828 0-1.5.671-1.5 1.5s.672 1.5 1.5 1.5 1.5-.671 1.5-1.5-.672-1.5-1.5-1.5zm8.49999 1.5c0-.829.672-1.5 1.5-1.5s1.5.671 1.5 1.5-.672 1.5-1.5 1.5-1.5-.671-1.5-1.5z" fill="#6b7280" fill-rule="evenodd"/></svg>
